X:153
T:Nu är jag lik den duvan
T:(Visa efter Sigrid Andersdotter)
S:efter [[Personer/Sigrid Andersdotter]] (Hultman)
O:Hulteberg, Värmland
B:EÖ, nr 153
R:Visa
Z:Nils L
M:4/4
L:1/8
Q:1/4=100
N:För den markerade noten är det litet svårt att utläsa om det ska vara ett A eller B.
K:Gm
d | d>G G>A B2 B>B | c>c c>c d2 B>c | d>d d>c B2 B>G | A>A A>B G3z G/ |
dG GA B2 B>B | cc cc d2 B>c | dd dc B2 BG | F>A AB G2>A2 |
Bc dB A3 B/A/ | GA BA2< ^F2D | Dd dc B2 BG | AA AB G3 F|]
